!!!COM: Haydn, Franz Joseph
!!!OPR: String Quartet in C Major
!!!ONM: Opus 64, No. 1
!!!OTL: Menuetto
!!!OMV: 2
!!!SCT: H III:65
!!!SCA: Thematisch-bibliographisches Werkevererzeichnis (A. van Hoboken)
!!!YOR: Dover Edition; reprint of Eulenburg Edition
!!!EED: Walter Hewlett
!!!ENC: Walter Hewlett
!!!CDT: 1732/3/31/-1809/5/31/
!!!OCY: Österreich
!!!YEC: Copyright (c) 1994, 2000 Center for Computer Assisted Research in the Humanities
!!!YEM: Rights to all derivative editions reserved.
!!!YEM: Refer to licensing agreement for further details.
!!!YEN: United States of America
**kern	**kern	**kern	**kern
*I:Violino I	*I:Violino II	*I:Viola	*I:Violoncello
*>[A,A,B,B,C,A,A,B,B,C,D,D]	*>[A,A,B,B,C,A,A,B,B,C,D,D]	*>[A,A,B,B,C,A,A,B,B,C,D,D]	*>[A,A,B,B,C,A,A,B,B,C,D,D]
*>A	*>A	*>A	*>A
*clefG2	*clefG2	*clefC3	*clefF4
*k[]	*k[]	*k[]	*k[]
*C:	*C:	*C:	*C:
*M3/4	*M3/4	*M3/4	*M3/4
! Allegretto ma non troppo	! Allegretto ma non troppo	! Allegretto ma non troppo	! Allegretto ma non troppo
*tb16	*tb16	*tb16	*tb16
=0-	=0-	=0-	=0-
4r	4r	4r	4GG
2ryy	2ryy	2ryy	2ryy
=1	=1	=1	=1
4r	4r	2.r	(4C
4gg'	4ee'	.	4E)
4gg'	4ee'	.	4G'
=2	=2	=2	=2
[2.gg	[2.ee	2.r	(4c
.	.	.	4e)
.	.	.	(16d
.	.	.	16c
.	.	.	16B
.	.	.	16A)
=3	=3	=3	=3
4gg]	4ee]	2.r	4G'
4aa	4ff	.	(4G
4ff	4dd	.	4G#)
=4	=4	=4	=4
(4ff	(4dd	2.r	(4G#
4ee)	4cc)	.	4A)
4r	4r	.	4FF'
=5	=5	=5	=5
4r	4r	4r	(4AA
4dd'	4cc'	4a'	4C#
4dd'	4cc'	4f'	4D)
=6	=6	=6	=6
2.dd	[2.cc	(4d	(4F
.	.	4e	4Gn
.	.	4f#)	4A)
=7	=7	=7	=7
(8dd	2cc]	2g	2.G
8ee	.	.	.
8ff)	.	.	.
8aa'	.	.	.
8gg'	4b	(16g	.
.	.	16fn	.
8b'	.	16e	.
.	.	16f)	.
=8	=8	=8	=8
4cc'	4cc'	4e'	4C'
4r	4r	4r	4c'
8b'	4r	4r	4r
8cc'	.	.	.
=9	=9	=9	=9
(8dd	2.b	[2.g	2.f
8ee	.	.	.
8ff)	.	.	.
8aa'	.	.	.
8gg'	.	.	.
8b'	.	.	.
=10	=10	=10	=10
(8cc	2.cc	2.g_	2.e
8dd	.	.	.
8ee)	.	.	.
8aa'	.	.	.
8gg'	.	.	.
8cc'	.	.	.
=11	=11	=11	=11
(8dd	2.dd	2.g]	2.B
8ee	.	.	.
8ff)	.	.	.
8aa'	.	.	.
8gg'	.	.	.
8dd'	.	.	.
=12	=12	=12	=12
8ee'	(4ee	(2g	(4c
8ff#'	.	.	.
8gg'	4dd	.	4B
8aa'	.	.	.
8bb'	4cc)	4a)	4A)
8ccc'	.	.	.
=13	=13	=13	=13
2ddd	8b'	2b	8G'
.	8cc'	.	8A'
.	8dd'	.	8B'
.	8ee'	.	8c'
(8ccc	8ff#'	(8a	8d'
8bb)	8gg'	8g)	8e'
=14	=14	=14	=14
4aa'	(4gg	(4e	(2c
4aa'	4ff#	4f#	.
4aa'	4ee)	4g)	4c#)
=15	=15	=15	=15
(4aa	(2dd	(4g	2d
4bb)	.	4f#	.
4ff#	4cc)	4a)	4D
=16	=16	=16	=16
4gg	4b	4g	4G'
4r	4r	4r	4GG'
(4gg	4B'	4G'	4r
=17	=17	=17	=17
4b)	(4d	(4B	2.r
4r	4fn)	4d)	.
(4gg	4B'	4G'	.
=18	=18	=18	=18
4cc)	(4e	(4c	2.r
4r	4g)	4e)	.
4gg'	4g'	4r	.
=19	=19	=19	=19
(8ff#	(8f#	4r	4r
8gg	8g	.	.
8aa	8a	4d'	4B'
8gg	8g	.	.
8ffn	8fn	4c'	4c'
8ee)	8e)	.	.
=20	=20	=20	=20
4dd	4d	4B'	4G'
4r	4r	4r	4GG'
4g'	4G'	4r	4r
=21	=21	=21	=21
(4cc	(4c	4r	4r
4ee)	4e)	4r	4r
4gg'	4g'	4e'	4c'
=22	=22	=22	=22
4ccc'	4cc'	4e'	4c'
4eee'	4ee'	4e'	4c'
(16ddd	(16dd	4e'	4c'
16ccc	16cc	.	.
16bb	16b	.	.
16aa)	16a)	.	.
=23	=23	=23	=23
4gg'	4g'	4d'	4B'
4gg'	4g'	4d'	4B'
4gg#z'	4fz'	4dz'	4Bz'
=24	=24	=24	=24
(4gg#	(4f	(4d	2A
4aa)	4e)	4c#)	.
4ff#z'	4e-z'	4cnz'	4Az'
=25	=25	=25	=25
(4ff#	(4e-	(4c	2G
4ggn)	4d)	4B)	.
4eez'	4cz'	4B-z'	4Gz'
=26	=26	=26	=26
(4ee	2c	(4B-	2F
4ffn)	.	4A)	.
4aa'	4r	4r	4r
=27	=27	=27	=27
(4aa	4r	2.r	4r
4ee)	4r	.	(4C#
4ff'	4a'	.	4D)
=28	=28	=28	=28
(4ff	(4a	4r	(4D
!	!	! dim.	!
4cc#)	4g	4A	4E
! dim.	! dim.	!	! dim.
4dd'	4f)	(8A	4F)
.	.	8Bn)	.
=29	=29	=29	=29
2.ccn	2.e	2.c	[2.G
=30	=30	=30	=30
8b'	(4f	(4d	2.G]
8cc'	.	.	.
8dd'	4e	4c	.
8ee'	.	.	.
8ff'	4d)	4B)	.
8gg'	.	.	.
=31	=31	=31	=31
(2.ff	(2.d	(2.B	(2.G#
=32	=32	=32	=32
4ee)	4c)	4c)	4A)
4r	4r	4r	4r
4eee'	4ee'	4r	4r
=33	=33	=33	=33
(4eee	(4ee	4r	4r
4bb)	4b)	4r	4r
4ccc'	4cc'	4g'	4e'
=34	=34	=34	=34
(4ccc	(4cc	(4g	(4e
4gg#)	4g#)	4d)	4B)
4aa'	4a'	4e'	4c'
=35	=35	=35	=35
(4ee	(4e	(4B	(4G#
4ff)	4f)	4c)	4A)
4cc#'	4c#'	4G'	4E'
=36	=36	=36	=36
(4dd	(4d	(4A	(4F
4ee	4e	4G	4E
4ff)	4f)	4F)	4D)
=37	=37	=37	=37
2.ccn	2.e	2.G	2.Gn]
=38	=38	=38	=38
[2.f	[2.d	(2.B	(2.GG#
=39	=39	=39	=39
4f]	4d]	2.A)	2.AA)
4e	4c#	.	.
4f	4d	.	.
=40	=40	=40	=40
(2.f#	[2.cn	(2.e-	(2.AA-
=41	=41	=41	=41
2g)	2c]	2en)	2GG)
4B'	(8e	(8g	4GG'
.	8d)	8f)	.
=42	=42	=42	=42
4c'	4c'	4e'	4CC'
4r	4r	4r	4r
(4ff#	(4ee-	(8cc	4r
.	.	8a)	.
=43	=43	=43	=43
4gg)	4een)	4g	4r
4r	4r	4r	4r
4b 4d'	4f 4G'	4G'	4G 4GG'
=44	=44	=44	=44
4cc 4e'	4e 4G'	4c'	4C 4CC'
4r	4r	4r	4r
! Fine	! Fine	! Fine	! Fine
=:|!	=:|!	=:|!	=:|!
*>C	*>C	*>C	*>C
*k[b-e-a-]	*k[b-e-a-]	*k[b-e-a-]	*k[b-e-a-]
*c:	*c:	*c:	*c:
*M3/4	*M3/4	*M3/4	*M3/4
! Trio	! Trio	! Trio	! Trio
4r	4r	4G	4r
2ryy	2ryy	2ryy	2ryy
=45	=45	=45	=45
2.r	2.r	(4c	4C'
.	.	4e-)	4C'
.	.	4g'	4C'
=46	=46	=46	=46
4r	4r	(4a-	2BB
4r	4r	4g)	.
4gg'	4B'	4r	4r
=47	=47	=47	=47
4gg'	(4d	2.r	2.r
4gg'	4f)	.	.
4gg'	4g'	.	.
=48	=48	=48	=48
(4ff	(4b	4r	2.r
4ee-)	4cc)	4r	.
4r	4r	4E-	.
=49	=49	=49	=49
2.r	2.r	(4A-	4AA-'
.	.	4c)	4AA-'
.	.	4e-'	4AA-'
=50	=50	=50	=50
4r	2.r	(4f	2GG
4r	.	4e-)	.
4e-'	.	4r	4r
=51	=51	=51	=51
(4a-	[2.e-	(2.c	(2.A-
4cc)	.	.	.
4ee-'	.	.	.
=52	=52	=52	=52
(4ff	(2.e-]	[2.B-)	2.G
4ee-)	.	.	.
4e-'	.	.	.
=53	=53	=53	=53
(4b-	2.d)	2.B-]	2.F)
4a-)	.	.	.
4B-'	.	.	.
=54	=54	=54	=54
(4a-	(4f	2B-	(4D
4g)	4e-)	.	4E-)
4f'	4c'	4A-'	4AA-'
=55	=55	=55	=55
(4e-	(4B-	(4G	(4BB-
4d)	2A-)	4F)	4C-)
4f'	.	4D'	4BB-'
=56	=56	=56	=56
4e-	4G	4E-	4E-'
4r	4r	4r	4EE-'
4b-'	4B-'	4G'	4EE-'
=57	=57	=57	=57
! cresc.	! cresc.	! cresc.	! cresc.
(4a	(4A	(4F#	[2.EE-
4b-)	4B-)	4G)	.
4bn'	4Bn	4G'	.
=58	=58	=58	=58
(4dd	(4d	(4G	2.EE-_
4cc)	4c)	4A-)	.
8ff'	4c'	4A-'	.
8ee-'	.	.	.
=59	=59	=59	=59
8dd'	(2.d	(2.A-	2.EE-_
8cc'	.	.	.
8b-'	.	.	.
8a-'	.	.	.
8g'	.	.	.
8f'	.	.	.
=60	=60	=60	=60
4e-	4e-)	4G)	4EE-]
4r	4r	4r	4r
4r	4r	4r	4B-'
=61	=61	=61	=61
4r	4r	2.r	4A
4r	4r	.	4B-
4a-	[4f	.	4Bn
=62	=62	=62	=62
2g	4f]	2.r	(4d
.	4e	.	4c)
(8cc	[4e-	.	4A'
8g-)	.	.	.
=63	=63	=63	=63
2f	4e-]	2.r	(4c
.	4d	.	4B-)
(8b-	[4d-	.	4G'
8f)	.	.	.
=64	=64	=64	=64
4e-'	4d-]	2.r	(4B-
4e-'	4c	.	4A-)
(8a-	4c	.	4F'
8e-)	.	.	.
=65	=65	=65	=65
2d	2.c	2.r	(4A-
.	.	.	4G)
4e-	.	.	4F#'
=66	=66	=66	=66
!	!	!	! cresc.
4d	4B	4r	[2.G
! cresc.	! cresc.	! cresc.	!
(4g	(4dn	(4B	.
4f#)	4c)	4A)	.
=67	=67	=67	=67
(4a	(4e-	(4c	2.G_
4g)	4d)	4B)	.
4b'	4g'	4d'	.
=68	=68	=68	=68
&(4cc	(4f#	(4e-	4G]
4b&)	4g)	4d)	4GG
4g'	4r	4r	4r
=69	=69	=69	=69
(4cc	4c'	2.r	2.r
4ee-)	4c'	.	.
4gg'	4c'	.	.
=70	=70	=70	=70
(4aa-	2B	4r	2.r
4gg)	.	4r	.
4ddd'	4ff'	4g'	.
=71	=71	=71	=71
4ddd'	4ff'	(4a-	2.r
4ddd'	4ff'	4b)	.
4ddd'	4ff'	4dd'	.
=72	=72	=72	=72
(4bb	(4aa-	(4ff	4r
4ccc)	4gg)	4ee-)	4r
4r	4r	4r	4AA-'
=73	=73	=73	=73
(2.ff#	(2.cc	(2.A-	(4C
.	.	.	4E-)
.	.	.	4F#'
=74	=74	=74	=74
2.ffn)	2.b)	2.G)	(4G
.	.	.	4B
.	.	.	4d)
=75	=75	=75	=75
4ee-'	4cc'	4c'	4c'
4e-'	4c'	4G'	4G'
(4dT	4B'	4F'	4GG'
! 16cP/LL	!	!	!
! 16dP/JJ)	!	!	!
=76	=76	=76	=76
4c'	4c'	4E-	[2.C
4r	4r	4r	.
4g'	4e'	4r	.
=77	=77	=77	=77
(4a-	(4f	4r	2.C_
4g)	4e)	4r	.
4cc'	4c'	4E	.
=78	=78	=78	=78
(4b-	(4d-	(2F	2.C_
4a-)	4c)	.	.
4g'	4c'	4G)	.
=79	=79	=79	=79
(4g	(2B	(2A-	2.C]
4f)	.	.	.
4e-'	4c)	4G)	.
=80	=80	=80	=80
(8dn	4A-	4F	4FF
8e-	.	.	.
8en	4r	4r	4r
8f	.	.	.
8f#	4r	4r	4r
8g)	.	.	.
=81	=81	=81	=81
(4a-	4r	4r	4r
4g)	4r	4r	4r
4B'	4dn'	4F'	4GG'
=82	=82	=82	=82
4c'	4c'	4E-'	4CC'
4r	4r	4r	4r
! Menuetto D.C.	! Menuetto D.C.	! Menuetto D.C.	! Menuetto D.C.
==:|!	==:|!	==:|!	==:|!
*-	*-	*-	*-
!!!RWG: Appoggiaturas of spine 'Violino I' need manual editing in measures: 76
!!!RWG: Key is interpreted using the Humdrum key tool.
!!!GTL: 6 Quartetti ("Tost III")
!!!AFT: stage2
!!!END: 1994/11/13
!!format changes:
!!content changes:
!!public access: complete
!!!KEY: 2270538497
!!!EMD: Converted from MuseData to Humdrum Dec 16, 2000, by Andreas Kornstaedt using muse2kern.
